X:408
T: ES WAR EINMAL EIN GAERTNER
N: B0481
O: Europa, Mitteleuropa, Deutschland
R: Liebes - Lied, Leid, Klage
M: 4/4
L: 1/8
K: F
C2 | F2F2G2G2 | A3Bc2
cA | F2FAG2G2 | F4z2
AB | c2c2c2dc | cBB2z2
GA | B2B2B2Bc | BAA2z2
cA | F2F2G2G2 | A3Bc2
cA | F2F2G2G2 | F4z2

